svg/white/bdl.svg

<svg xmlns="http://www.w3.org/2000/svg" width="32" height="32" viewBox="0 0 32 32">
  <path fill="#FFF" fill-rule="evenodd" d="M16,32 C7.163444,32 0,24.836556 0,16 C0,7.163444 7.163444,0 16,0 C24.836556,0 32,7.163444 32,16 C32,24.836556 24.836556,32 16,32 Z M9.328,8.61664 C9.32352,11.7336 9.328,14.8504 9.32448,17.968 C9.968,15.88944 11.612,14.14288 13.67456,13.4312 C15.46816,12.80224 17.53488,12.91776 19.216,13.82176 C19.216,13.64592 19.216,13.472 19.21776,13.29712 C17.11216,12.28464 14.53104,12.33488 12.48176,13.4648 C12.50112,10.74864 12.47872,8.03264 12.49296,5.31664 C11.5085333,6.30992 10.51936,7.29845333 9.52544,8.28224 C9.4456,8.3824 9.30864,8.4704 9.328,8.61664 Z M22.71792,20.27936 L22.71744,20.27952 C22.7288,16.35376 22.70624,12.428 22.7288,8.5032 C21.648,7.41824 20.568,6.3312 19.47888,5.25728 C19.50752,5.7656 19.4992,6.27584 19.49824,6.78512 C19.49616,10.83968 19.51248,14.8944 19.5064,18.94896 C19.49888,19.73536 19.57888,20.55648 19.25888,21.29888 C18.75568,22.60992 17.39872,23.52912 15.99264,23.4944 C14.5312,23.50976 13.14768,22.48912 12.71104,21.0984 C12.2216,19.6872 12.77792,18.00912 14.00704,17.16336 C15.12368,16.35344 16.73216,16.3176 17.8888,17.06512 C18.47376,17.4312 18.91648,17.98336 19.21408,18.6 C19.20224,17.10592 19.20192,15.6118933 19.21312,14.11792 C17.3888,13.11296 15.09312,13.03824 13.20944,13.92592 C11.78384,14.58352 10.60176,15.75488 9.94112,17.17888 C9.348,18.45296 9.15472,19.9184 9.44,21.29792 C9.76832,23.04 10.83888,24.62048 12.31808,25.5928 C13.71184,26.52848 15.46352,26.89968 17.11808,26.62048 C18.51696,26.39248 19.83312,25.69808 20.82096,24.68368 C21.96832,23.51696 22.66672,21.91552 22.71792,20.27936 Z"/>
</svg>

<svg xmlns="http://www.w3.org/2000/svg" width="32" height="32"><path fill="#FFF" fill-rule="evenodd" d="M16 32C7.163 32 0 24.837 0 16S7.163 0 16 0s16 7.163 16 16-7.163 16-16 16zM9.328 8.617c-.004 3.117 0 6.233-.004 9.351.644-2.079 2.288-3.825 4.35-4.537 1.794-.629 3.86-.513 5.542.39 0-.175 0-.349.002-.524-2.106-1.012-4.687-.962-6.736.168.02-2.716-.003-5.432.011-8.148-.984.993-1.974 1.981-2.968 2.965-.08.1-.216.188-.197.335zm13.39 11.662c.01-3.925-.012-7.851.01-11.776-1.08-1.085-2.16-2.172-3.25-3.246.03.509.021 1.019.02 1.528-.002 4.055.014 8.11.008 12.164-.007.786.073 1.607-.247 2.35-.503 1.31-1.86 2.23-3.266 2.195-1.462.016-2.845-1.005-3.282-2.396-.49-1.41.067-3.089 1.296-3.935 1.117-.81 2.725-.845 3.882-.098.585.366 1.027.918 1.325 1.535a290.645 290.645 0 0 1 0-4.482c-1.825-1.005-4.12-1.08-6.005-.192a6.749 6.749 0 0 0-3.268 3.253c-.593 1.274-.786 2.74-.501 4.119.328 1.742 1.399 3.322 2.878 4.295a6.697 6.697 0 0 0 8.503-.91 6.652 6.652 0 0 0 1.897-4.404z"/></svg>
